icons/udemy.svg

<?xml version="1.0" encoding="UTF-8"?>
<svg width="256px" height="210px" viewBox="0 0 256 210" version="1.1" xmlns="http://www.w3.org/2000/svg" xmlns:xlink="http://www.w3.org/1999/xlink" preserveAspectRatio="xMidYMid">
    <g>
        <path d="M251.69966,119.287023 C250.801236,118.566234 249.790082,118.081154 248.690111,117.872774 C242.192764,124.349625 234.264086,131.171499 227.223585,135.755852 C223.974912,137.914802 219.889302,138.994277 217.183783,138.994277 C210.956304,138.994277 208.250784,133.057164 207.437762,123.618588 C206.35487,110.941587 205.623833,95.7571967 205.623833,72.2888595 C205.623833,48.2192956 200.161552,31.8563647 185.609133,30.5719259 C184.994243,30.5172689 184.372519,30.4796922 183.723468,30.4796922 C174.790469,30.4796922 170.458904,35.0640458 164.774578,46.6649879 C159.903275,56.6433013 152.323038,71.2093844 138.248866,98.7223375 C126.067194,122.460543 112.532762,143.500061 100.890827,158.066145 C97.6489853,162.103928 95.0869396,164.87777 92.6786168,166.45599 C91.0696522,167.514969 89.5255928,168.044458 87.8995479,168.044458 C83.3049462,168.044458 79.9503746,164.16723 78.8299067,155.138581 C78.5634539,152.993295 78.4233954,150.557643 78.4233954,147.814547 C78.4233954,129.203847 85.4638966,98.9922062 97.6421531,54.4843509 C106.575152,22.1171755 102.786741,0.00159833507 83.294698,0.00159833507 C83.2639535,0.00159833507 83.233209,0.00159833507 83.2024643,0.00159833507 C83.1614716,0.00159833507 83.1204789,0.00159833507 83.0760702,0.00159833507 L83.0624059,0.0050143958 C78.6488554,0.0562553068 74.9902544,1.65497173 71.4648797,4.42881304 C67.994162,7.16166163 64.5200282,13.0646146 61.2781866,21.0001237 C57.6230016,29.9399546 35.3981105,74.5195472 0.0248016023,97.4857234 C-0.391957807,106.217175 4.55108208,114.94521 14.5669721,115.891459 C23.6844383,116.755722 30.1578733,112.912654 38.4930615,107.31373 C37.8679224,110.09782 37.2906081,112.700858 36.7645348,115.081852 C36.1428117,117.89327 35.6133224,120.318673 35.1897308,122.276076 C34.5543435,125.189976 34.1512483,127.065393 34.0316862,127.584635 C32.8736417,132.896609 32.046955,137.94213 31.5106333,142.731448 C26.5231847,187.314456 47.1869361,209.313887 71.3863103,209.313887 C75.4309262,209.313887 79.4379655,208.832224 83.4176762,207.82107 C110.08003,201.060685 135.748311,170.476694 166.130755,100.071681 C165.669587,107.73049 165.621761,114.883721 165.95312,121.521127 C167.954931,161.871636 183.914767,173.978156 206.464183,173.978156 C223.517159,173.978156 239.487243,165.079318 247.607219,154.018112 C253.564829,146.195334 256.00048,137.562947 256.00048,130.819644 C256.00048,125.586239 254.340275,121.408397 251.69966,119.287023" fill="#EA5252"></path>
    </g>
</svg>

<svg xmlns="http://www.w3.org/2000/svg" viewBox="0 0 256 209.312">
  <path fill="#ea5252" d="M251.7 119.285c-.9-.72-1.91-1.205-3.01-1.414-6.498 6.477-14.426 13.299-21.467 17.883-3.249 2.16-7.334 3.239-10.04 3.239-6.227 0-8.933-5.937-9.746-15.376-1.083-12.677-1.814-27.861-1.814-51.33 0-24.07-5.462-40.432-20.014-41.717a21.123 21.123 0 0 0-1.886-.092c-8.933 0-13.265 4.584-18.949 16.185-4.871 9.979-12.451 24.545-26.526 52.058-12.181 23.738-25.716 44.777-37.358 59.344-3.241 4.037-5.804 6.811-8.212 8.39-1.609 1.058-3.153 1.588-4.779 1.588-4.595 0-7.95-3.877-9.07-12.906-.266-2.145-.406-4.581-.406-7.324 0-18.61 7.04-48.822 19.219-93.33C106.575 22.116 102.786 0 83.294 0h-.218l-.014.003c-4.414.052-8.072 1.65-11.598 4.424C67.994 7.16 64.52 13.063 61.278 21c-3.655 8.94-25.88 53.519-61.254 76.485-.416 8.732 4.527 17.46 14.542 18.406 9.118.864 15.591-2.979 23.927-8.578a2304.314 2304.314 0 0 0-3.304 14.962c-.635 2.914-1.038 4.79-1.158 5.309-1.158 5.312-1.985 10.358-2.52 15.147-4.988 44.583 15.675 66.582 39.875 66.582 4.044 0 8.051-.481 12.031-1.493 26.663-6.76 52.33-37.344 82.713-107.749-.46 7.659-.509 14.812-.177 21.45 2.001 40.35 17.961 52.457 40.51 52.457 17.054 0 33.024-8.9 41.144-19.96 5.957-7.823 8.393-16.456 8.393-23.199 0-5.233-1.66-9.411-4.3-11.533"/>
</svg>
